material/.icons/material/exclamation.svg

<svg xmlns="http://www.w3.org/2000/svg" viewBox="0 0 24 24"><path d="M11 4h2v11h-2V4zm2 14v2h-2v-2h2z"/></svg>

<?xml version="1.0" encoding="UTF-8"?><!DOCTYPE svg PUBLIC "-//W3C//DTD SVG 1.1//EN" "http://www.w3.org/Graphics/SVG/1.1/DTD/svg11.dtd"><svg xmlns="http://www.w3.org/2000/svg" xmlns:xlink="http://www.w3.org/1999/xlink" version="1.1" id="mdi-exclamation" width="24" height="24" viewBox="0 0 24 24"><path d="M 11,4L 13,4L 13,15L 11,15L 11,4 Z M 13,18L 13,20L 11,20L 11,18L 13,18 Z" /></svg>
